X: 1
T: Auld Lang Syne
C: Traditional
M: 4/4
L: 1/8
Q:1/4=150
K:F
V:1
C2 F3F F2|A2 G3F G2|A2 F3F A2|c2 d6|
d2 c3A A2|F2 G3F G2|AG F3D D2|C2 F6|
d2 c3A A2|F2 G3F G2|d2 c3A A2|c2 d6|
d2 c3A A2|F2 G3F G2|AG F3D D2|C2 F6|
C2 F3F F2|A2 G3F G2|A2 F3F A2|c2 d6|
d2 c3A A2|F2 G3F G2|AG F3D D2|C2 F6|
d2 c3A A2|F2 G3F G2|d2 c3A A2|c2 d6|
d2 c3A A2|F2 G3F G2|AG F3D D2|C2 F6|